X: 7
T: La Volta
R: waltz
M: 3/4
L: 1/8
K: Gmaj
B2 A2 G2|:B4 B2|BA GA Bc|d6|c2 AB cA|B2 GA Bc|
A2 FG AF|1 G2 EF GA|B2 A2 G2:|2 G6|GD GA Bc||
|:d2 d2 e2|c2 c2 d2|B3 A G2|GD GA Bc|
dz DE FG|AG FG AF|1 G6|GD GA Bc:|2 G6||

